X: 471
T: Bûselik Aranağme (Semâî)
C: ?
O: Turkey
F: http://compmusic.upf.edu/node/140
N: buselik--aranagme--semai--1--
N: makam= buselik
N: form= aranagme
N: usul= semai = 3/4
M: 3/4
L: 1/16
K: C    
Q: 1/4=162
%%MIDI tuningsystem comma53
e4 f4 e4  | a8 f4  | e4 f4 e4  | a8 z4  | g4 e4 g4  | \
w:  ARANAĞME  |   |   |   |   | 
f4 d4 f4  | e12  | e12  | {e}d4 e4 f4  | 
w:   |   |   |   | 
e8 c4  | B4 c4 d4  | {d}c8 B4  | d4 c4 B4  | \
w:   |   |   |   | 
A4 ^G4 B4  | A8 (3A2c2e2  | a8 z4  | e4 f4 e4  | 
w:   |   |   |  ARANAĞME  | 
a8 f4  | e4 f4 e4  | a8 z4  | g4 e4 g4  | f4 d4 f4  | e12  | e12  | \
w:   |   |   |   |   |   |   | 
{e}d4 e4 f4  | e8 c4  | B4 c4 d4  | 
w:   |   |   | 
{d}c8 B4  | d4 c4 B4  | A4 ^G4 B4  | A8 (3A2c2e2  | \
w:   |   |   |   | 
A8 z4  | |


